vendor/shopware/storefront/Resources/app/storefront/dist/assets/icon/default/editor-italic.svg

<svg xmlns="http://www.w3.org/2000/svg" width="12" height="12" viewBox="0 0 12 12">
  <path fill="#758CA3" fill-rule="evenodd" d="M4.1801961,10 L5.78483705,1.97679524 C5.33596478,1.87837046 5,1.47841962 5,1 C5,0.44771525 5.44771525,1.01453063e-16 6,0 L8,0 C8.55228475,-1.01453063e-16 9,0.44771525 9,1 C9,1.55228475 8.55228475,2 8,2 L7.8198039,2 L6.21516295,10.0232048 C6.66403522,10.1216295 7,10.5215804 7,11 C7,11.5522847 6.55228475,12 6,12 L4,12 C3.44771525,12 3,11.5522847 3,11 C3,10.4477153 3.44771525,10 4,10 L4.1801961,10 Z"/>
</svg>

<svg xmlns="http://www.w3.org/2000/svg" width="12" height="12" viewBox="0 0 12 12"><path fill="#758CA3" fill-rule="evenodd" d="m4.1802 10 1.6046-8.0232C5.336 1.8784 5 1.4784 5 1c0-.5523.4477-1 1-1h2c.5523 0 1 .4477 1 1s-.4477 1-1 1h-.1802l-1.6046 8.0232C6.664 10.1216 7 10.5216 7 11c0 .5523-.4477 1-1 1H4c-.5523 0-1-.4477-1-1s.4477-1 1-1h.1802z"/></svg>
